X:51
T:Man of Constant Sorrow
C:Traditional
S:https://JamBuddy.live
R:Air
M:4/4
L:1/8
K:Ador
z2 de e2 dB|:"Am"A8-|A2 c2 BAG2|"G"B2 d6-|dBde ge g2|
|"E7"e8-|e2 dB A2B2|"Am"A8-|1A2 de e2 dB:|2 A2 d2e2f2||
|"D"a8-|a2a2 fe d2|"G"B2d6-|d2d2e2f2|
|"D"a8-|a2 a2 fede|"E7"e8-|e2 de e2 dB|
|"Am"A8-|A2c2 BAGA|"G"B2d6-|dBde ge g2|"E7"e8-|e2 dB A2B2|"Am"A8-|A8|]


